X: 2
T: Impromptu 
N: 
O: Franz Schubert
Z: https://www.youtube.com/watch?v=bRjKo0QEIuI
R: waltz
M: 3/4
Q: 1/4=80
L: 1/8
K: Eb
(B>c|(.d2).d2.d2) (c>d|e2>d2 c2) (d>c|=B2 =A>B c2 d>e)|d6 .=B>.c|
.d2 .d2 .d2 .c>.d|e>>d c2 d>c|=B2 =A>B c2 e>d|c6 (d>e|